X:1
T:Partition sans titre
C:Compositeur / Arrangeur
L:1/8
M:3/4
I:linebreak $
K:D
V:1 treble nm="Violon" snm="Vln."
V:1
"D" d2 A2 G2 | F3 F DF |"G" E2 F2 G2 | B3 e dB | d2 c3 B |1"A" c2 d2 e2 |"D" (a6 | a3) g fe :|2 %8
"A" c2 f2 e2 |"D" (d6 | d3) e dc ||"Bm" B2 F2 Bc | d2 b2 fg |"A7" a2 g3 a | g3 e ce | %15
"A7" AB cd ef | g2 e2 aa |"Bm" g2 f3 g | f3 e dc |"Bm" B2 F2 Bc | d2 c2 B2 |"A7" A2 G2 F2 | %22
"Bm" G3 B AG |"Bm" F2 ^A2 ce | d2 c2 d2 | B3 c d2 |1"A" c3 e dc :|2"A" c3 g fe |] %28
